outputs/icons/social/remove_group_round.svg

<svg xmlns="http://www.w3.org/2000/svg" width="1200" height="1200" fill="none"><g fill="#000" clip-path="url(#a)"><path d="M400 750c116.5 0 350 58.5 350 175v75c0 27.5-22.5 50-50 50H100c-27.5 0-50-22.5-50-50v-75c0-116.5 233.5-175 350-175M800 750c116.5 0 350 58.5 350 175v75c0 27.5-22.5 50-50 50H841.015c5.5-15.5 8.985-32.5 8.985-50v-75c0-73.495-39.49-129.01-96.485-170.51-.5-.495-1.005-1.5-2-2 17.495-1.5 33.99-2.49 48.485-2.49M400 350c83 0 149.51 67 149.51 150S483 650 400 650s-150-67-150-150 67-150 150-150M800 350c83 0 149.51 67 149.51 150S883 650 800 650s-150-67-150-150 67-150 150-150M1100 150c27.5 0 50 22.5 50 50s-22.5 50-50 50H900c-27.5 0-50-22.5-50-50s22.5-50 50-50z"/></g><defs><clipPath id="a"><path fill="#fff" d="M0 0h1200v1200H0z"/></clipPath></defs></svg>

<svg width="1200" height="1200" viewBox="0 0 1200 1200" fill="none" xmlns="http://www.w3.org/2000/svg"><g clip-path="url(#clip0_231_5363)"><path d="M400 750C516.5 750 750 808.5 750 925V1000C750 1027.5 727.5 1050 700 1050H100C72.5 1050 50 1027.5 50 1000V925C50 808.5 283.5 750 400 750Z" fill="black"/><path d="M800 750C916.5 750 1150 808.5 1150 925V1000C1150 1027.5 1127.5 1050 1100 1050H841.015C846.515 1034.5 850 1017.5 850 1000V925C850 851.505 810.51 795.99 753.515 754.49C753.015 753.995 752.51 752.99 751.515 752.49C769.01 750.99 785.505 750 800 750Z" fill="black"/><path d="M400 350C483 350 549.51 417 549.51 500C549.51 583 483 650 400 650C317 650 250 583 250 500C250 417 317 350 400 350Z" fill="black"/><path d="M800 350C883 350 949.51 417 949.51 500C949.51 583 883 650 800 650C717 650 650 583 650 500C650 417 717 350 800 350Z" fill="black"/><path d="M1100 150C1127.5 150 1150 172.5 1150 200C1150 227.5 1127.5 250 1100 250H900C872.5 250 850 227.5 850 200C850 172.5 872.5 150 900 150H1100Z" fill="black"/></g><defs><clipPath id="clip0_231_5363"><path width="24" fill="white" d="M0 0H1200V1200H0V0z"/></clipPath></defs></svg>
